X: 1
T: Lisburn Lasses, The
M: 4/4
L: 1/8
R: reel
K: Dmaj
(3FGFEFD2DE|FDED(3FEDED|(3FGFEFD2DE|1FABc dBAG:|2FABcd2de||
fd{e}(3dcdfd{e}(3dcd|(3fedfga2bg|(3fed ecdcAB|c{d}c{B}cA Ggfg|
fd{e}(3dcdfd{e}(3dcd|fedc d{e}d{c}de|(3fedec dcAB|{e}cAGF GBAG||
